X: 3
T: Troll Soup 
C: Brendan Taaffe
M: C|
L: 1/8
R: reel
K: F#m
|:\
"F#m"F2Ac BAFE | F/2F/2F AF "E"EFAE | "F#m"F2 Ac BAFA | fcef "E"ecBA | 
"F#m"F2Ac BAFE | F/2F/2F AF "E"EFAB | "A"cBAc "Bm"BAFD | "C#m"EFFE "F#m" F3z :| 
|:\
"F#m"f3a fecA | "Bm"B3c BAFA | "F#m"f3a fe c2 | "C#m"effe "F#m"f2 ce | 
"F#m"f2fa fecA | "Bm"B3c BAF2 | "F#m"ABBA cBAF | "C#m"EFFE "F#m"F3z :|] 
